X: 1
T: Aspen Bank
O: from Scots Guards I
R: strathspey
S: printed page in Concord Slow Scottish Session collection
Z: 2015 John Chambers <jc:trillian.mit.edu>
M: C
L: 1/16
K: D
A2 |\
d4 c3d Bd3 A3B | d4 f3d a3d f3e |\
d3e f3e Bd3 A3d | e3d (3f2e2d2 ce3 [1 e3f :|[2 e2 |]
fg |\
a4 fa3 d3a fa3 | g3e f3d e3d f3d |\
a4 fa3 d3a fa3 | g3e (3f2e2d2 | ce3 (3e2f2g2 |
a4 fa3 d3a fa3 | g3e f3d e3d f3d |\
B4 Bd3 A3d f3d | fa3 (3g2f2e2 f3d d2 |]
